X:1
T:Wells (Bortniansky), 77.77.77
T:Wells (Bortniansky), 77.77.77
T:Dimitri Stepanovich Bortniansky, 1822
T:Public Domain Courtesy of the Cyber Hymnal™
C:Dimitri Stepanovich Bortniansky, 1822
Z:Public Domain
Z:Courtesy of the Cyber Hymnal™
%%score ( 1 2 ) ( 3 4 )
L:1/8
M:3/4
K:D
V:1 treble 
V:2 treble 
V:3 bass 
V:4 bass 
V:1
 [FA]2 [DF]2 [EG]2 | [FA]4 [Fd]2 | [Ge]2 [Fd]2 [Ec]2 | [Fd]6 | [GB]2 [Bd]2 [GB]2 | [FA]4 [DF]2 | %6
 A2 G2 [DF]2 | [CE]6 | [FA]2 [DF]2 [EG]2 | [FA]4 [Fd]2 | [Ge]2 [Fd]2 [Ec]2 | [Fd]6 | %12
 [GB]2 [Bd]2 [GB]2 | [FA]4 [DF]2 | B2 F2 [E^G]2 | [EA]6 | [Ge]4 [Ec]2 | [Fd]4 [FA]2 | %18
 [Af]2 [Ge]2 [Fd]2 | [Fd]4 [Ec]2 | [Fd]2 [Ac]2 [GB]2 | [FA]4 [DF]2 | [DG]4 [CE]2 | D6 |] %24
V:2
 x6 | x6 | x6 | x6 | x6 | x6 | E4 x2 | x6 | x6 | x6 | x6 | x6 | x6 | x6 | F4 x2 | x6 | x6 | x6 | %18
 x6 | x6 | x6 | x6 | x6 | D6 |] %24
V:3
 [D,A,]4 [D,A,]2 | [D,A,]4 [D,A,]2 | C2 D2 [A,,E]2 | [D,D]6 | [G,D]4 [G,D]2 | [D,D]4 [D,A,]2 | %6
 [C,A,]4 [D,A,]2 | [A,,A,]6 | [D,A,]4 (B,C) | [D,D]4 [D,A,]2 | C2 D2 [A,,E]2 | [D,D]6 | %12
 [G,D]4 [G,D]2 | [D,D]4 [D,A,]2 | [B,,D]4 [E,B,]2 | [A,,C]6 | [A,,C]4 [A,,E]2 | [D,D]4 [D,D]2 | %18
 [D,D]2 [E,C]2 D2 | A,6 | [D,A,]4 (B,C) | [D,D]4 [D,A,]2 | [G,,B,]4 (A,G,) | [D,F,]6 |] %24
V:4
 x6 | x6 | A,,4 x2 | x6 | x6 | x6 | x6 | x6 | x4 D,2 | x6 | A,,4 x2 | x6 | x6 | x6 | x6 | x6 | x6 | %17
 x6 | x4 (F,G,) | x6 | x4 D,2 | x6 | x4 A,,2 | x6 |] %24

